packages/tokens/icons/home/size16Px.svg

<svg viewBox="0 0 16 16" fill="none" xmlns="http://www.w3.org/2000/svg" width="1em" height="1em"><path d="M13.2941 8.94444H12.7941V9.44444V13C12.7941 13.8284 12.1225 14.5 11.2941 14.5H10.7941C9.96569 14.5 9.29412 13.8284 9.29412 13V11.7598C9.29412 10.972 8.65547 10.3333 7.86765 10.3333C7.07983 10.3333 6.44118 10.972 6.44118 11.7598V13C6.44118 13.8284 5.7696 14.5 4.94118 14.5H4.70588C3.87746 14.5 3.20588 13.8284 3.20588 13V9.44444V8.94444H2.70588C1.74953 8.94444 1.25878 7.7989 1.91854 7.10656L6.9141 1.8643C7.50517 1.24404 8.49483 1.24404 9.0859 1.8643L14.0815 7.10656C14.7412 7.7989 14.2505 8.94444 13.2941 8.94444Z" stroke="currentColor"/></svg>

<svg xmlns="http://www.w3.org/2000/svg" fill="none" viewBox="0 0 16 16" width="1em" height="1em"><path stroke="currentColor" d="M13.294 8.944h-.5V13a1.5 1.5 0 0 1-1.5 1.5h-.5a1.5 1.5 0 0 1-1.5-1.5v-1.24a1.427 1.427 0 0 0-2.853 0V13a1.5 1.5 0 0 1-1.5 1.5h-.235a1.5 1.5 0 0 1-1.5-1.5V8.944h-.5c-.956 0-1.447-1.145-.787-1.837l4.995-5.243a1.5 1.5 0 0 1 2.172 0l4.995 5.243c.66.692.17 1.837-.787 1.837Z"/></svg>
